X: 1020
T: Wheel Hoss
C:Bill Monroe, Arr. Mike Compton
B: jims roots
M:4/4
L:1/8
Q: 1/4=100
K:G
V:1 
%N:Tabledited by  Mike Stangeland
%Q:540
"G"G,B, DG "F"=F2 FF | "G"G,B, DG "F"=FD ^A,=A, | "G"G,B, DG "F"=F2 FA |
"D"dc Bd "G"BG GG | "G"G,B, DG "F"=F2 F2 | "G"G,B, DG "F"=FD ^A,=A, | "G"G,B, DG "F"=F2 FA |
"D"dc Bd "G"BG GG |: "G"G,B, DG "F"=FE FE | "G"G,B, DG "F"=FE FE | "G"^A,B, DG "F"=FD FA |
[1 d"D"c Bd "G"BG G2:|[2 d"D"c Bd "G"BG Ge|| "G"eg gg gg gg | ge dB GG Ge |
eg gg g2 gg | bg ag eg gg | bg ag ga ge | =fe dc BG EG |
"D"DG GA cA Bd | [M:3/4]"G"BG G2 G2 || [M:4/4]"G"eg gg g2 gg | ge dB GG Gg | g2 g2 g2 g2 |
bg ag eg g2 | ^ab zb g3=a | ge dB AG DG | "D"DG GA Bd dc | [M:3/4]"G"BG G2 G2|]
% abcbook-tune_id 6298c297a7b345eed20e0084


% abcbook-boost 0
% abcbook-tablature 
% abcbook-transpose 
% abcbook-lastupdated 1654178456831
% abcbook-soundfonts 
% abcbook-repeats 1


